X: 10931
T: Drumgoon
R: reel
M: 4/4
K: Gmajor
|:DF|G2 BG dGBG|FGAB cAFA|GABc dgfg|eage dcBA|
G2 BG dGBG|FGAB cAFA|GABc dgfg|ecAF G2:|
|:Bd|g2 fg edcB|ABcA GFED|GABc dgfg|eage d2 ef|
g2 fg edcB|ABcA GFED|GABc dgfg|ecAF G2:|

